X:1
T:Little Brown Jug
M:2/4
L:1/8
K:A
 C/2C/2 EE E| DD F F/2F/2| E/2E/2 EG E| EA c2| CE EE| DD FF| EE GE|\
 EA A2| cA E2| DD F2| E/2E/2 GG E| EA c2| cA E2| DD F2| E/2E/2 GG E|\
 EA A2|
